svg/nature/maple_leaf_line.svg

<?xml version="1.0" encoding="UTF-8"?>
<svg width="24px" height="24px" viewBox="0 0 24 24" version="1.1" xmlns="http://www.w3.org/2000/svg" xmlns:xlink="http://www.w3.org/1999/xlink">
    <title>maple_leaf_line</title>
    <g id="Icon" stroke="none" stroke-width="1" fill="none" fill-rule="evenodd">
        <g id="Nature" transform="translate(-624.000000, -2.000000)">
            <g id="maple_leaf_line" transform="translate(624.000000, 2.000000)">
                <path d="M24,0 L24,24 L0,24 L0,0 L24,0 Z M12.5935,23.2578 L12.5819,23.2595 L12.5109,23.295 L12.4919,23.2987 L12.4767,23.295 L12.4057,23.2595 C12.3958,23.2564 12.387,23.259 12.3821,23.2649 L12.378,23.2758 L12.3609,23.7031 L12.3659,23.7235 L12.3769,23.7357 L12.4805,23.8097 L12.4953,23.8136 L12.5071,23.8097 L12.6107,23.7357 L12.6233,23.7197 L12.6267,23.7031 L12.6096,23.2758 C12.6076,23.2657 12.601,23.2593 12.5935,23.2578 Z M12.8584,23.1453 L12.8445,23.1473 L12.6598,23.2397 L12.6499,23.2499 L12.6472,23.2611 L12.6651,23.6906 L12.6699,23.7034 L12.6784,23.7105 L12.8793,23.8032 C12.8914,23.8069 12.9022,23.803 12.9078,23.7952 L12.9118,23.7812 L12.8777,23.1665 C12.8753,23.1546 12.8674,23.147 12.8584,23.1453 Z M12.143,23.1473 C12.1332,23.1424 12.1222,23.1453 12.1156,23.1526 L12.1099,23.1665 L12.0758,23.7812 C12.0751,23.7927 12.0828,23.8019 12.0926,23.8046 L12.1083,23.8032 L12.3092,23.7105 L12.3186,23.7024 L12.3225,23.6906 L12.3404,23.2611 L12.3372,23.2485 L12.3278,23.2397 L12.143,23.1473 Z" id="MingCute" fill-rule="nonzero"></path>
                <path d="M14.7138,5.34312 C14.0317,4.29264 13.1669,3.47019 12.4598,3.11209 C12.4412,3.10249 12.4224,3.09347 12.4033,3.08506 C12.2725,3.02733 12.1354,2.99999967 12.0001,2.99999967 C11.8648,2.99999967 11.7277,3.02733 11.5969,3.08506 C11.5778,3.09347 11.559,3.10249 11.5404,3.11209 C10.8333,3.47019 9.96853,4.29264 9.2864,5.34312 C8.86625,5.99015 8.48861,6.76399 8.25289,7.632 C7.53059,7.18446 6.74637,6.86155 5.81633,6.55154 C5.54422,6.46083 5.24626,6.49134 4.99817,6.63531 C4.75009,6.77928 4.57577,7.02284 4.51952,7.3041 C4.26259,8.58876 4.1073,9.86191 4.32782,11.1115 C4.46195,11.8716 4.72985,12.596 5.16102,13.2954 C4.66296,13.4672 4.08952,13.7388 3.4454,14.1682 C3.05193,14.4305 2.896,14.9325 3.07162,15.3716 C3.36115,16.0954 4.0928,16.8752 5.44035,17.5258 C6.65578,18.1125 8.42856,18.6242 11.0001,18.9082 L11.0001,21.0002 C11.0001,21.5525 11.4478,22.0002 12.0001,22.0002 C12.5524,22.0002 13.0001,21.5525 13.0001,21.0002 L13.0001,18.9082 C15.5716,18.6242 17.3444,18.1125 18.5599,17.5258 C19.9074,16.8752 20.639,16.0954 20.9286,15.3716 C21.1042,14.9325 20.9483,14.4305 20.5548,14.1682 C19.9107,13.7388 19.3372,13.4672 18.8392,13.2954 C19.2704,12.596 19.5382,11.8716 19.6724,11.1115 C19.8929,9.86191 19.7376,8.58876 19.4807,7.3041 C19.4244,7.02284 19.2501,6.77928 19.002,6.63531 C18.7539,6.49134 18.456,6.46083 18.1839,6.55154 C17.2538,6.86155 16.4696,7.18446 15.7473,7.632 C15.5116,6.76399 15.1339,5.99015 14.7138,5.34312 Z M13.0001,16.8952 C15.2943,16.6243 16.7664,16.1707 17.6904,15.7247 C18.0079,15.5714 18.2549,15.4221 18.4462,15.2851 C17.7635,14.999 17.3008,14.9998 17.0297,15.0002 L17.0001,15.0002 C16.5956,15.0002 16.231,14.7566 16.0762,14.3829 C15.9214,14.0092 16.007,13.5791 16.293,13.2931 C17.162,12.4241 17.5543,11.6057 17.7028,10.7639 C17.8046,10.1872 17.7982,9.56642 17.7125,8.86242 C16.9086,9.20977 16.3102,9.6043 15.7072,10.2073 C15.4212,10.4933 14.9911,10.5789 14.6174,10.4241 C14.2437,10.2693 14.0001,9.90468 14.0001,9.50022 C14.0001,8.33878 13.5838,7.27535 13.0364,6.43232 C12.6835,5.88889 12.3051,5.4803 12.0001,5.21501 C11.6951,5.4803 11.3167,5.88889 10.9638,6.43232 C10.4164,7.27535 10.0001,8.33878 10.0001,9.50022 C10.0001,9.90468 9.75646,10.2693 9.38278,10.4241 C9.00911,10.5789 8.57899,10.4933 8.29299,10.2073 C7.68997,9.6043 7.0916,9.20977 6.28771,8.86242 C6.20199,9.56642 6.19561,10.1872 6.29738,10.7639 C6.44592,11.6057 6.83824,12.4241 7.70721,13.2931 C7.99321,13.5791 8.07876,14.0092 7.92398,14.3829 C7.7692,14.7566 7.40456,15.0002 7.0001,15.0002 L6.97055,15.0002 C6.6994,14.9998 6.23666,14.999 5.55398,15.2851 C5.74535,15.4221 5.99227,15.5714 6.30985,15.7247 C7.23375,16.1707 8.70591,16.6243 11.0001,16.8952 L11.0001,14.0002 C11.0001,13.4479 11.4478,13.0002 12.0001,13.0002 C12.5524,13.0002 13.0001,13.4479 13.0001,14.0002 L13.0001,16.8952 Z" id="形状" fill="#09244B"></path>
            </g>
        </g>
    </g>
</svg>

<svg xmlns="http://www.w3.org/2000/svg" width="24" height="24"><g fill="none" fill-rule="evenodd"><path d="M24 0v24H0V0h24ZM12.594 23.258l-.012.002-.071.035-.02.004-.014-.004-.071-.036c-.01-.003-.019 0-.024.006l-.004.01-.017.428.005.02.01.013.104.074.015.004.012-.004.104-.074.012-.016.004-.017-.017-.427c-.002-.01-.009-.017-.016-.018Zm.264-.113-.014.002-.184.093-.01.01-.003.011.018.43.005.012.008.008.201.092c.012.004.023 0 .029-.008l.004-.014-.034-.614c-.003-.012-.01-.02-.02-.022Zm-.715.002a.023.023 0 0 0-.027.006l-.006.014-.034.614c0 .012.007.02.017.024l.015-.002.201-.093.01-.008.003-.011.018-.43-.003-.012-.01-.01-.184-.092Z"/><path fill="#09244B" d="M14.714 5.343c-.682-1.05-1.547-1.873-2.254-2.23A1.014 1.014 0 0 0 12 3a.996.996 0 0 0-.46.112c-.707.358-1.571 1.18-2.254 2.231a8.154 8.154 0 0 0-1.033 2.289c-.722-.448-1.507-.77-2.437-1.08a1 1 0 0 0-1.296.752c-.257 1.285-.413 2.558-.192 3.807.134.76.402 1.485.833 2.184a7.521 7.521 0 0 0-1.716.873 1 1 0 0 0-.373 1.204c.29.723 1.02 1.503 2.368 2.154 1.216.587 2.989 1.098 5.56 1.382V21a1 1 0 1 0 2 0v-2.092c2.572-.284 4.344-.796 5.56-1.382 1.347-.65 2.079-1.43 2.369-2.154a1 1 0 0 0-.374-1.204 7.522 7.522 0 0 0-1.716-.873c.431-.699.7-1.423.833-2.184.22-1.25.066-2.522-.191-3.807a1 1 0 0 0-1.297-.752c-.93.31-1.714.632-2.437 1.08a8.155 8.155 0 0 0-1.033-2.289ZM13 16.895c2.294-.27 3.766-.724 4.69-1.17a5.12 5.12 0 0 0 .756-.44C17.763 15 17.301 15 17.03 15H17a1 1 0 0 1-.707-1.707c.869-.869 1.261-1.687 1.41-2.53.102-.576.095-1.197.01-1.9-.804.347-1.403.741-2.006 1.344A1 1 0 0 1 14 9.5c0-1.161-.416-2.225-.964-3.068A5.874 5.874 0 0 0 12 5.215a5.874 5.874 0 0 0-1.036 1.217C10.416 7.275 10 8.34 10 9.5a1 1 0 0 1-1.707.707c-.603-.603-1.201-.997-2.005-1.345-.086.704-.092 1.325.01 1.902.148.842.54 1.66 1.41 2.53A1 1 0 0 1 7 15h-.03c-.27 0-.733-.001-1.416.285.191.137.438.286.756.44.924.446 2.396.9 4.69 1.17V14a1 1 0 1 1 2 0v2.895Z"/></g></svg>
